Yaru++/actions/16/tool-node-editor.svg

<svg viewBox="0 0 24 24" xmlns="http://www.w3.org/2000/svg">
  <g fill="#808080">
    <path d="m8.4170365 11.969037c-.4732907-1.241744-.6201928-1.61038-.6377729-1.600417-.012525.0071-.3439459.242668-.7364101.523442-.5571635.398602-.7130928.503347-.7113895.477885.00716-.106837.6491157-4.4531829.6582569-4.4566693.00909-.00348 3.3815631 2.8124136 3.4579681 2.8873186.01815.01777-.141222.04056-.7254293.103618-.4117701.04449-.8161832.08824-.8986834.09734l-.150003.01646.617841 1.620789.6178401 1.62079-.4313828.164666c-.2372607.09057-.4346481.163208-.4386405.161419-.004-.0018-.2839764-.729263-.6221887-1.616612z"/>
    <path d="m5.5 4.0000002c-.831 0-1.5.669-1.5 1.5 0 .65424.418077 1.202197 1 1.408203v10.0917968h-1v3h3v-3h-1v-10.0917968c.424456-.150261.756746-.48554.908203-.908203h10.091798v1h3v-3h-3v1h-10.091798c-.206006-.581923-.753963-1-1.408203-1zm0 1c.277 0 .5.223.5.5s-.223.5-.5.5-.5-.223-.5-.5.223-.5.5-.5zm12.500001 0h1v1h-1zm-13.000001 12.9999998h1v1h-1z"/>
  </g>
</svg>

<svg xmlns="http://www.w3.org/2000/svg" version="1.1" viewBox="0 0 24 24">
 <defs>
  <style id="current-color-scheme" type="text/css">
   .ColorScheme-Text { color:#808080; }
  </style>
 </defs>
 <path style="fill:currentColor" class="ColorScheme-Text" d="M 8.4170365,11.969037 C 7.9437458,10.727293 7.7968437,10.358657 7.7792636,10.36862 7.7667386,10.37572 7.4353177,10.611288 7.0428535,10.892062 6.48569,11.290664 6.3297607,11.395409 6.331464,11.369947 6.338624,11.26311 6.9805797,6.9167641 6.9897209,6.9132777 c 0.00909,-0.00348 3.3815631,2.8124136 3.4579681,2.8873186 0.01815,0.01777 -0.141222,0.04056 -0.7254293,0.103618 -0.4117701,0.04449 -0.8161832,0.08824 -0.8986834,0.09734 l -0.150003,0.01646 0.617841,1.620789 0.6178401,1.62079 -0.4313828,0.164666 c -0.2372607,0.09057 -0.4346481,0.163208 -0.4386405,0.161419 -0.004,-0.0018 -0.2839764,-0.729263 -0.6221887,-1.616612 z"/>
 <path style="fill:currentColor" class="ColorScheme-Text" d="m 5.5,4.0000002 c -0.831,0 -1.5,0.669 -1.5,1.5 0,0.65424 0.418077,1.202197 1,1.408203 V 17 H 4 v 3 H 7 V 17 H 6 V 6.9082032 c 0.424456,-0.150261 0.756746,-0.48554 0.908203,-0.908203 h 10.091798 v 1 h 3 v -3 h -3 v 1 H 6.908203 c -0.206006,-0.581923 -0.753963,-1 -1.408203,-1 z m 0,1 c 0.277,0 0.5,0.223 0.5,0.5 0,0.277 -0.223,0.5 -0.5,0.5 -0.277,0 -0.5,-0.223 -0.5,-0.5 0,-0.277 0.223,-0.5 0.5,-0.5 z m 12.500001,0 h 1 v 1 h -1 z M 5,18 h 1 v 1 H 5 Z"/>
</svg>
